22x22/apps/hexalate.svg

<svg xmlns="http://www.w3.org/2000/svg" width="22" height="22" version="1">
 <path style="opacity:0.2" d="m 21,11.5 a 10,10 0 0 1 -10,10 10,10 0 0 1 -10,-10 10,10 0 0 1 10,-10 10,10 0 0 1 10,10 z"/>
 <path style="fill:#17191e" d="M 21,11 A 10,10 0 0 1 11,21 10,10 0 0 1 1,11 10,10 0 0 1 11,1 10,10 0 0 1 21,11 Z"/>
 <path style="opacity:0.2" d="M 11,1.5 A 10,10 0 0 0 8.7998045,1.7578125 L 11,11 13.201172,1.7539063 A 10,10 0 0 0 11,1.5 Z M 18.338867,4.7216795 11.432617,11.25 20.539062,8.5341795 a 10,10 0 0 0 -2.200195,-3.8125 z M 3.663086,4.7236295 A 10,10 0 0 0 1.4511719,8.53125 L 10.567383,11.25 Z M 10.567383,11.75 1.4609375,14.465821 a 10,10 0 0 0 2.2001953,3.812499 z m 0.865234,0 6.904297,6.526367 A 10,10 0 0 0 20.548828,14.46875 Z M 11,12 8.798828,21.246094 A 10,10 0 0 0 11,21.5 10,10 0 0 0 13.200196,21.242187 Z"/>
 <path style="fill:#ff5454" d="M 11,1 A 10,10 0 0 0 8.7998045,1.2578125 L 11,10.5 13.201172,1.2539063 A 10,10 0 0 0 11,1 Z"/>
 <path style="fill:#fff129" d="M 18.338867,4.2216795 11.432617,10.75 20.539062,8.0341795 a 10,10 0 0 0 -2.200195,-3.8125 z"/>
 <path style="fill:#c552da" d="M 3.6630859,4.223633 A 10,10 0 0 0 1.4511719,8.03125 L 10.567383,10.75 Z"/>
 <path style="fill:#336eef" d="M 10.567383,11.25 1.4609375,13.965821 A 10,10 0 0 0 3.6611328,17.77832 Z"/>
 <path style="fill:#45cb32" d="m 11.432617,11.25 6.904297,6.526367 a 10,10 0 0 0 2.211914,-3.807617 z"/>
 <path style="fill:#00d4ea" d="M 11,11.5 8.798828,20.746094 A 10,10 0 0 0 11,21 10,10 0 0 0 13.200196,20.742187 Z"/>
 <path style="opacity:0.1;fill:#f4f4f7" d="M 11,1 A 10,10 0 0 0 1,11 10,10 0 0 0 1.0107422,11.291016 10,10 0 0 1 11,1.5 10,10 0 0 1 20.989258,11.208985 10,10 0 0 0 21,11 10,10 0 0 0 11,1 Z"/>
 <path style="opacity:0.1;fill:#f4f4f7" d="M 11,1 A 10,10 0 0 0 8.7998045,1.2578125 L 8.913086,1.7333985 A 10,10 0 0 1 11,1.5 10,10 0 0 1 13.086914,1.7333985 L 13.201172,1.2539063 A 10,10 0 0 0 11,1 Z M 18.338867,4.2216795 11.432617,10.75 12.205078,10.519531 18.338867,4.7216795 a 10,10 0 0 1 2.035156,3.3613285 l 0.165039,-0.04883 a 10,10 0 0 0 -2.200195,-3.8125 z M 3.663086,4.2236295 A 10,10 0 0 0 1.4511719,8.03125 l 0.15625,0.046875 A 10,10 0 0 1 3.6630859,4.723633 L 9.794922,10.519531 10.567383,10.75 Z M 10.567383,11.25 1.4609375,13.965821 a 10,10 0 0 0 0.165039,0.451171 L 9.794922,11.980469 Z m 0.865234,0 0.772461,0.730469 8.1875,2.441406 a 10,10 0 0 0 0.15625,-0.453125 z M 11,11.5 8.798828,20.746094 a 10,10 0 0 0 0.114258,0.02051 L 11,12 l 2.086914,8.766601 a 10,10 0 0 0 0.113282,-0.02442 z"/>
</svg>

<svg xmlns="http://www.w3.org/2000/svg" width="22" height="22" version="1"><path style="opacity:.2" d="M21 11.5a10 10 0 0 1-10 10 10 10 0 0 1-10-10 10 10 0 0 1 10-10 10 10 0 0 1 10 10z"/><path style="fill:#17191e" d="M21 11a10 10 0 0 1-10 10A10 10 0 0 1 1 11 10 10 0 0 1 11 1a10 10 0 0 1 10 10z"/><path style="opacity:.2" d="M11 1.5a10 10 0 0 0-2.2.258L11 11l2.201-9.246A10 10 0 0 0 11 1.5zm7.339 3.222-6.906 6.528 9.106-2.716a10 10 0 0 0-2.2-3.812zm-14.676.002A10 10 0 0 0 1.451 8.53l9.116 2.719zm6.904 7.026-9.106 2.716a10 10 0 0 0 2.2 3.812zm.866 0 6.904 6.526a10 10 0 0 0 2.212-3.807zM11 12l-2.201 9.246A10 10 0 0 0 11 21.5a10 10 0 0 0 2.2-.258z"/><path style="fill:#ff5454" d="M11 1a10 10 0 0 0-2.2.258L11 10.5l2.201-9.246A10 10 0 0 0 11 1z"/><path style="fill:#fff129" d="m18.339 4.222-6.906 6.528 9.106-2.716a10 10 0 0 0-2.2-3.812z"/><path style="fill:#c552da" d="M3.663 4.224A10 10 0 0 0 1.451 8.03l9.116 2.719z"/><path style="fill:#336eef" d="m10.567 11.25-9.106 2.716a10 10 0 0 0 2.2 3.812z"/><path style="fill:#45cb32" d="m11.433 11.25 6.904 6.526a10 10 0 0 0 2.212-3.807z"/><path style="fill:#00d4ea" d="m11 11.5-2.201 9.246A10 10 0 0 0 11 21a10 10 0 0 0 2.2-.258z"/><path style="opacity:.1;fill:#f4f4f7" d="M11 1A10 10 0 0 0 1 11a10 10 0 0 0 .01.291A10 10 0 0 1 11 1.5a10 10 0 0 1 9.99 9.709A10 10 0 0 0 21 11 10 10 0 0 0 11 1z"/><path style="opacity:.1;fill:#f4f4f7" d="M11 1a10 10 0 0 0-2.2.258l.113.475A10 10 0 0 1 11 1.5a10 10 0 0 1 2.087.233l.114-.48A10 10 0 0 0 11 1zm7.339 3.222-6.906 6.528.772-.23 6.134-5.798a10 10 0 0 1 2.035 3.361l.165-.049a10 10 0 0 0-2.2-3.812zm-14.676.002A10 10 0 0 0 1.451 8.03l.156.047a10 10 0 0 1 2.056-3.354l6.132 5.796.772.23zm6.904 7.026-9.106 2.716a10 10 0 0 0 .165.451l8.169-2.437zm.866 0 .772.73 8.188 2.442a10 10 0 0 0 .156-.453zM11 11.5l-2.201 9.246a10 10 0 0 0 .114.02L11 12l2.087 8.767a10 10 0 0 0 .113-.025z"/></svg>
